X:1
T:Title
%%score 1 { ( 2 5 6 ) | ( 3 4 ) }
L:1/8
Q:1/4=100
M:4/4
K:D
V:1 treble nm="Choir Aahs"
V:2 treble nm="Grand Piano"
V:5 treble 
V:6 treble 
V:3 bass 
V:4 bass 
V:1
 F3 F F2 F2 | A3 G F2 E2 | D2 F2 d2 c2 | c2 B2 A4 | c3 c d2 A2 | A3 G G2 F2 | d2 c2 B2 A2 | %7
w: George~Balch~Nevil * * *|||||||
 A2 B2 A4 | c3 c d2 A2 | G2 F2 B2 E2 | G2 B2 e3 d | d3 c c4 | d3 d A2 D2 | B2 A2 G2 F2 | %14
w: |||||||
 E2 B2 A2 d2 | d2 c2 d4 |] %16
w: ||
V:2
 [A,DF]3 [DF] [A,DF]2 [A,=CF]2 | [A,CA]3 [CG] [G,CF]2[K:bass] [A,CE]2 | %2
 [F,D]2[K:treble] [A,DF]2 [DFd]2 [EFc]2 | [E^Gc]2 [DGB]2 [CEA]4 | [EAc]3 [EAc] [DAd]2 [A,DA]2 | %5
 [A,CA]3 [CG] [A,CG]2 [A,DF]2 | [DFd]2 [EFc]2 [DFB]2 [=CFA]2 | [CEA]2 [D^G]2 [CEA]4 | %8
 [EAc]3 [EAc] [DAd]2 A2 | G2 F2 B2 E2 | G2 [AB]2 z2 z [Gd] | [EGd]3 [Gc] [EGc]4 | %12
 [DFd]3 [Fd] [=CFA]2 [F,CD]2 | [B,DB]2 [=CFA]2 G2 F2 | E2 B2 A2 d2 | [Gd]2 [EGc]2 [Fd]4 |] %16
V:3
 D,2 z A, D,2 ^D,2 | E,2 z A, C,2 A,,2 | D,2 D,2 B,,2 C,D, | E,2 E,,2 A,,4 | G,3 G, F,2 F,2 | %5
 E,2 z A, D,2 D,2 | B,,2 C,2 D,2 ^D,2 | E,2 E,,2 A,,4 | G,3 G, F,2 [F,A,D]2 | %9
 [B,^D]2 [A,B,D]2 [G,B,E]2 [G,B,]2 | [G,B,E]2 [F,B,^D]2 [E,B,]2 z E | A,2 z E A,,4 | %12
 D,2 z D D,2 D,2 | G,2 ^D,2 [E,B,E]2 [F,B,D]2 | [G,B,D]2 [^G,D]2 [A,DF]2 [B,DF]2 | %15
 [E,B,E]2 [A,,A,]2 [D,A,D]4 |] %16
V:4
 z2 A,,2 z4 | z2 A,,2 z4 | x8 | x8 | x8 | z2 A,,2 z4 | x8 | x8 | x8 | x8 | z4 z2 G,2 | z2 A,,2 z4 | %12
 z2 D,2 z4 | x8 | x8 | x8 |] %16
V:5
 x8 | x6[K:bass] x2 | x2[K:treble] x6 | x8 | x8 | x8 | x8 | x8 | x8 | x8 | z4 [EGe]4 | x8 | x8 | %13
 x8 | x8 | x8 |] %16
V:6
 x8 | x6[K:bass] x2 | x2[K:treble] x6 | x8 | x8 | x8 | x8 | x8 | x8 | x8 | z4 z2 B,2 | x8 | x8 | %13
 x8 | x8 | x8 |] %16

